img/samsung-internet.svg

<svg enable-background="new 0 0 2688.00 2688.00" height="2688" viewBox="0 0 2688 2688" width="2688" xmlns="http://www.w3.org/2000/svg"><g stroke-linejoin="round" stroke-width=".2"><path d="m1037.57-.00024414h612.86c573.03 0 1037.57 464.53624414 1037.57 1037.57024414v612.86c0 573.03-464.54 1037.57-1037.57 1037.57h-612.86c-573.034 0-1037.57-464.54-1037.57-1037.57v-612.86c0-573.034 464.536-1037.57024414 1037.57-1037.57024414z" fill="#7882ff"/><path d="m2058.12 1344c0-29.42-1.75-58.42-5.16-86.92-7.74-15.74-16.53-31.58-26.37-47.46 171.91 152.57 256.06 317.15 206.51 446.41-44.16 115.19-186.01 180.26-379.02 192.06-188.42 11.51-425.59-27.76-668.18-120.75-241.983-92.76-444.213-221.67-576.677-355.81-136.368-138.1-198.796-281.75-154.531-397.221 47.05-122.74 205.042-188.581 417.642-193.686l5.329-.115c-93.444 75.671-167.69 174.115-214.294 286.892 41.787 127.68 223.243 277.09 575.101 425.38 287.89 121.33 624.33 180.95 774.56 86.46l7.81-5.16c24.18-72.29 37.28-149.66 37.28-230.08z" fill="#4d5cc1"/><path d="m2052.96 1257.08c3.41 28.5 5.16 57.5 5.16 86.92 0 80.42-13.1 157.79-37.28 230.08-146.1 101.74-489.38 42.19-782.37-81.3-351.858-148.29-533.313-297.7-575.101-425.38 46.605-112.777 120.851-211.22 214.294-286.892l3.647-2.933c123.94-99.056 281.11-158.281 452.11-158.281 370.82 0 676.6 278.523 719.54 637.786zm-719.55 811.62c-391.021 0-709.716-309.69-724.187-697.17 132.463 134.14 334.693 263.05 576.677 355.81 242.59 92.99 479.76 132.26 668.18 120.74-131.74 136.05-316.33 220.62-520.67 220.62z" fill="#fff"/></g></svg>

<?xml version="1.0" encoding="UTF-8"?>
<!DOCTYPE svg PUBLIC "-//W3C//DTD SVG 1.1//EN" "http://www.w3.org/Graphics/SVG/1.1/DTD/svg11.dtd">
<svg xmlns="http://www.w3.org/2000/svg" xmlns:xlink="http://www.w3.org/1999/xlink" version="1.1" baseProfile="full" width="2688" height="2688" viewBox="0 0 2688.00 2688.00" enable-background="new 0 0 2688.00 2688.00" xml:space="preserve">
	<path fill="#7882FF" fill-opacity="1" stroke-width="0.2" stroke-linejoin="round" d="M 1037.57,-0.000244141L 1650.43,-0.000244141C 2223.46,-0.000244141 2688,464.536 2688,1037.57L 2688,1650.43C 2688,2223.46 2223.46,2688 1650.43,2688L 1037.57,2688C 464.536,2688 0,2223.46 0,1650.43L 0,1037.57C 0,464.536 464.536,-0.000244141 1037.57,-0.000244141 Z "/>
	<g>
		<path fill="#4D5CC1" fill-opacity="1" stroke-width="0.2" stroke-linejoin="round" d="M 2058.12,1344C 2058.12,1314.58 2056.37,1285.58 2052.96,1257.08C 2045.22,1241.34 2036.43,1225.5 2026.59,1209.62C 2198.5,1362.19 2282.65,1526.77 2233.1,1656.03C 2188.94,1771.22 2047.09,1836.29 1854.08,1848.09C 1665.66,1859.6 1428.49,1820.33 1185.9,1727.34C 943.917,1634.58 741.687,1505.67 609.223,1371.53C 472.855,1233.43 410.427,1089.78 454.692,974.309C 501.742,851.569 659.734,785.728 872.334,780.623L 877.663,780.508C 784.219,856.179 709.973,954.623 663.369,1067.4C 705.156,1195.08 886.612,1344.49 1238.47,1492.78C 1526.36,1614.11 1862.8,1673.73 2013.03,1579.24L 2020.84,1574.08C 2045.02,1501.79 2058.12,1424.42 2058.12,1344 Z "/>
		<path fill="#FFFFFF" fill-opacity="1" stroke-width="0.2" stroke-linejoin="round" d="M 2052.96,1257.08C 2056.37,1285.58 2058.12,1314.58 2058.12,1344C 2058.12,1424.42 2045.02,1501.79 2020.84,1574.08C 1874.74,1675.82 1531.46,1616.27 1238.47,1492.78C 886.612,1344.49 705.157,1195.08 663.369,1067.4C 709.974,954.623 784.22,856.18 877.663,780.508L 881.31,777.575C 1005.25,678.519 1162.42,619.294 1333.42,619.294C 1704.24,619.294 2010.02,897.817 2052.96,1257.08 Z M 1333.41,2068.7C 942.389,2068.7 623.694,1759.01 609.223,1371.53C 741.686,1505.67 943.916,1634.58 1185.9,1727.34C 1428.49,1820.33 1665.66,1859.6 1854.08,1848.08C 1722.34,1984.13 1537.75,2068.7 1333.41,2068.7 Z "/>
	</g>
</svg>
